src/img/icon/house.svg

<?xml version="1.0" encoding="UTF-8"?> <svg xmlns="http://www.w3.org/2000/svg" width="53" height="53" viewBox="0 0 53 53" fill="none"> <path d="M4.81812 43.3636H48.1818" stroke="#D32F2A" stroke-width="2.332" stroke-linecap="round" stroke-linejoin="round"></path> <path d="M5.78174 38.5455H47.2181" stroke="#D32F2A" stroke-width="2.332" stroke-linecap="round" stroke-linejoin="round"></path> <path d="M13.4909 38.5455V23.6091C11.5636 23.9303 6.5527 24.2837 1.92725 23.1273C2.3127 27.7527 5.9424 29.8727 7.70906 30.3546V38.5455" stroke="#D32F2A" stroke-width="2.332" stroke-linejoin="round"></path> <path d="M39.509 38.5455V23.6091C41.4363 23.9303 46.4472 24.2837 51.0726 23.1273C50.6872 27.7527 47.0575 29.8727 45.2908 30.3546V38.5455" stroke="#D32F2A" stroke-width="2.332" stroke-linejoin="round"></path> <path d="M25.9153 9.6687C22.7705 15.9804 13.7946 16.3207 9.69979 15.7019C9.20846 19.4147 11.6656 22.1992 13.6308 23.1274C21.1101 23.1274 24.9325 19.26 25.9153 17.5583C25.9153 13.8456 26.1465 9.20467 25.9153 9.6687Z" stroke="#D32F2A" stroke-width="2.332" stroke-linejoin="round"></path> <path d="M42.0189 15.8999L41.8346 14.7486C42.1468 14.6986 42.466 14.7776 42.7188 14.9674C42.9717 15.1572 43.1366 15.4416 43.1759 15.7553L42.0189 15.8999ZM24.9631 10.1329C24.6889 9.55017 24.939 8.85554 25.5217 8.58134C26.1043 8.30715 26.799 8.55722 27.0732 9.13989L24.9631 10.1329ZM38.1643 23.6091L38.6858 24.6519C38.5239 24.7329 38.3453 24.7751 38.1643 24.7751V23.6091ZM42.2031 17.0513C40.0661 17.3932 36.6687 17.4698 33.3698 16.5933C30.0646 15.7151 26.7036 13.8315 24.9631 10.1329L27.0732 9.13989C28.4163 11.994 31.0481 13.5635 33.9686 14.3395C36.8954 15.1171 39.9565 15.0491 41.8346 14.7486L42.2031 17.0513ZM27.1425 17.2689C27.919 18.6924 31.2919 22.4431 38.1643 22.4431V24.7751C30.3692 24.7751 26.246 20.4954 25.0952 18.3855L27.1425 17.2689ZM37.6428 22.5662C39.202 21.7865 41.2726 19.331 40.8619 16.0445L43.1759 15.7553C43.7286 20.178 40.9807 23.5043 38.6858 24.6519L37.6428 22.5662Z" fill="#D32F2A"></path> <path d="M20.2363 37.5818V28.9091H32.7636V37.5818" stroke="#D32F2A" stroke-width="2.332" stroke-linejoin="round"></path> </svg>

<svg xmlns="http://www.w3.org/2000/svg" width="53" height="53" fill="none"><path d="M4.818 43.364h43.364m-42.4-4.819h41.436" stroke="#D32F2A" stroke-width="2.332" stroke-linecap="round" stroke-linejoin="round"/><path d="M13.49 38.545V23.61c-1.926.321-6.937.675-11.563-.482.386 4.626 4.015 6.746 5.782 7.228v8.19m31.8-.001V23.61c1.927.321 6.938.675 11.564-.482-.386 4.626-4.016 6.746-5.782 7.228v8.19M25.915 9.669C22.77 15.98 13.795 16.32 9.7 15.702c-.492 3.713 1.966 6.497 3.93 7.425 7.48 0 11.303-3.867 12.285-5.569 0-3.712.232-8.353 0-7.89z" stroke="#D32F2A" stroke-width="2.332" stroke-linejoin="round"/><path d="M42.019 15.9l-.184-1.151a1.166 1.166 0 011.34 1.006l-1.156.145zm-17.056-5.767a1.166 1.166 0 012.11-.993l-2.11.993zm13.201 13.476l.522 1.043c-.162.08-.34.123-.522.123V23.61zm4.04-6.558c-2.138.342-5.535.419-8.834-.458-3.305-.878-6.666-2.761-8.407-6.46l2.11-.993c1.343 2.854 3.975 4.423 6.896 5.2 2.926.777 5.987.71 7.866.409l.368 2.302zm-15.062.218c.777 1.423 4.15 5.174 11.022 5.174v2.332c-7.795 0-11.918-4.28-13.069-6.39l2.047-1.116zm10.5 5.297c1.56-.78 3.63-3.235 3.22-6.521l2.314-.29c.553 4.423-2.195 7.75-4.49 8.897l-1.043-2.086z" fill="#D32F2A"/><path d="M20.236 37.582v-8.673h12.528v8.673" stroke="#D32F2A" stroke-width="2.332" stroke-linejoin="round"/></svg>
